blockchains/elrond/assets/BBANK-ab116b/logo.svg

<svg fill="none" height="243" viewBox="0 0 243 243" width="243" xmlns="http://www.w3.org/2000/svg"><circle cx="122.076" cy="120.924" fill="#fff" r="119.773"/><g fill="#262830"><path d="m121.572 64.8415h-5.119v18.158h5.119c9.052 0 17.9 2.684 25.426 7.7128 7.526 5.0287 13.392 12.1757 16.856 20.5387 3.463 8.362 4.37 17.564 2.604 26.442-1.766 8.877-6.125 17.032-12.525 23.432s-14.555 10.759-23.432 12.525c-8.878 1.766-18.08.86-26.442-2.604-8.3626-3.464-15.5101-9.33-20.5388-16.856-5.0288-7.526-7.7128-16.374-7.7128-25.426v-78.9005h-18.158v78.9005c0 12.643 3.749 25.002 10.773 35.514 7.0239 10.512 17.0073 18.705 28.6877 23.544 11.6799 4.838 24.5329 6.104 36.9329 3.637 12.4-2.466 23.79-8.554 32.73-17.494 8.939-8.94 15.028-20.33 17.494-32.73s1.201-25.252-3.638-36.933c-4.838-11.6802-13.031-21.6636-23.543-28.6875-10.512-7.024-22.871-10.773-35.514-10.773z"/><path d="m121.572 164.002c9.346 0 18.309-3.712 24.917-10.321 6.609-6.608 10.321-15.571 10.321-24.917s-3.712-18.309-10.321-24.918c-6.608-6.6081-15.571-10.3208-24.917-10.3208h-5.117v18.1578h5.119c3.378 0 6.68 1.002 9.489 2.879s4.998 4.545 6.291 7.666c1.292 3.121 1.63 6.555.971 9.868-.659 3.314-2.286 6.357-4.674 8.746-2.389 2.388-5.432 4.015-8.746 4.674-3.313.659-6.747.321-9.868-.971-3.121-1.293-5.789-3.482-7.666-6.291s-2.878-6.111-2.879-9.489v-64.1417h-18.1595v64.1417c.0109 9.343 3.7272 18.299 10.3335 24.905 6.606 6.606 15.563 10.322 24.906 10.333"/></g></svg>

<svg width="243" height="243" viewBox="0 0 243 243" fill="none" xmlns="http://www.w3.org/2000/svg">
<circle cx="122.076" cy="120.924" r="119.773" fill="white"/>
<path d="M121.572 64.8415H116.453V82.9995H121.572C130.624 82.9995 139.472 85.6835 146.998 90.7123C154.524 95.741 160.39 102.888 163.854 111.251C167.317 119.613 168.224 128.815 166.458 137.693C164.692 146.57 160.333 154.725 153.933 161.125C147.533 167.525 139.378 171.884 130.501 173.65C121.623 175.416 112.421 174.51 104.059 171.046C95.6964 167.582 88.5489 161.716 83.5202 154.19C78.4914 146.664 75.8074 137.816 75.8074 128.764V49.8635H57.6494V128.764C57.6494 141.407 61.3984 153.766 68.4224 164.278C75.4463 174.79 85.4297 182.983 97.1101 187.822C108.79 192.66 121.643 193.926 134.043 191.459C146.443 188.993 157.833 182.905 166.773 173.965C175.712 165.025 181.801 153.635 184.267 141.235C186.733 128.835 185.468 115.983 180.629 104.302C175.791 92.6218 167.598 82.6384 157.086 75.6145C146.574 68.5905 134.215 64.8415 121.572 64.8415Z" fill="#262830"/>
<path d="M121.572 164.002C130.918 164.002 139.881 160.29 146.489 153.681C153.098 147.073 156.81 138.11 156.81 128.764C156.81 119.418 153.098 110.455 146.489 103.846C139.881 97.2379 130.918 93.5252 121.572 93.5252H116.455V111.683H121.574C124.952 111.683 128.254 112.685 131.063 114.562C133.872 116.439 136.061 119.107 137.354 122.228C138.646 125.349 138.984 128.783 138.325 132.096C137.666 135.41 136.039 138.453 133.651 140.842C131.262 143.23 128.219 144.857 124.905 145.516C121.592 146.175 118.158 145.837 115.037 144.545C111.916 143.252 109.248 141.063 107.371 138.254C105.494 135.445 104.493 132.143 104.492 128.765V64.6233H86.3325V128.765C86.3434 138.108 90.0597 147.064 96.666 153.67C103.272 160.276 112.229 163.992 121.572 164.003" fill="#262830"/>
</svg>
